client/public/images/icon_soccer.svg

<svg fill="none" height="20" viewBox="0 0 23 23" width="20" xmlns="http://www.w3.org/2000/svg"><g stroke="#fff"><path d="m11.625 1.625c-5.52285 0-10 4.47715-10 10 0 5.5228 4.47715 10 10 10 5.5228 0 10-4.4772 10-10 0-2.65216-1.0536-5.1957-2.9289-7.07107-1.8754-1.87536-4.4189-2.92893-7.0711-2.92893z"/><path d="m8.86477 15.8506-1.69778-5.2445 4.45781-3.24087 4.4577 3.24087-1.6977 5.2445z"/><path d="m15.448 2.38086-3.8231 2.57689-3.82314-2.57689"/><path d="m13.9351 21.3571 1.9013-3.8809 4.3413-.6666"/><path d="m21.5931 12.4328-3.0462-3.03381.6533-4.30133"/><path d="m11.625 4.95801v2.40711"/><path d="m16.083 10.6065 2.464-1.20709"/><path d="m1.65723 12.4328 3.04622-3.03381-.65333-4.30133"/><path d="m7.16712 10.6065-2.464-1.20709"/><path d="m14.3848 15.8506 1.4515 1.6249"/><path d="m9.31493 21.3571-1.90133-3.8809-4.34133-.6666"/><path d="m8.86513 15.8506-1.45156 1.6249"/></g></svg>

<svg width="20" height="20" viewBox="0 0 23 23" fill="none" xmlns="http://www.w3.org/2000/svg">
<path fillRule="evenodd" clipRule="evenodd" d="M11.625 1.625C6.10215 1.625 1.625 6.10215 1.625 11.625C1.625 17.1478 6.10215 21.625 11.625 21.625C17.1478 21.625 21.625 17.1478 21.625 11.625C21.625 8.97284 20.5714 6.4293 18.6961 4.55393C16.8207 2.67857 14.2772 1.625 11.625 1.625Z" stroke="white" strokeWidth="1.5" strokeLinecap="round" strokeLinejoin="round"/>
<path fillRule="evenodd" clipRule="evenodd" d="M8.86477 15.8506L7.16699 10.6061L11.6248 7.36523L16.0825 10.6061L14.3848 15.8506H8.86477V15.8506Z" stroke="white" strokeWidth="1.5" strokeLinecap="round" strokeLinejoin="round"/>
<path d="M15.448 2.38086L11.6249 4.95775L7.80176 2.38086" stroke="white" strokeWidth="1.5" strokeLinecap="round" strokeLinejoin="round"/>
<path d="M13.9351 21.3571L15.8364 17.4762L20.1777 16.8096" stroke="white" strokeWidth="1.5" strokeLinecap="round" strokeLinejoin="round"/>
<path d="M21.5931 12.4328L18.5469 9.39899L19.2002 5.09766" stroke="white" strokeWidth="1.5" strokeLinecap="round" strokeLinejoin="round"/>
<path d="M11.625 4.95801V7.36512" stroke="white" strokeWidth="1.5" strokeLinecap="round" strokeLinejoin="round"/>
<path d="M16.083 10.6065L18.547 9.39941" stroke="white" strokeWidth="1.5" strokeLinecap="round" strokeLinejoin="round"/>
<path d="M1.65723 12.4328L4.70345 9.39899L4.05012 5.09766" stroke="white" strokeWidth="1.5" strokeLinecap="round" strokeLinejoin="round"/>
<path d="M7.16712 10.6065L4.70312 9.39941" stroke="white" strokeWidth="1.5" strokeLinecap="round" strokeLinejoin="round"/>
<path d="M14.3848 15.8506L15.8363 17.4755" stroke="white" strokeWidth="1.5" strokeLinecap="round" strokeLinejoin="round"/>
<path d="M9.31493 21.3571L7.4136 17.4762L3.07227 16.8096" stroke="white" strokeWidth="1.5" strokeLinecap="round" strokeLinejoin="round"/>
<path d="M8.86513 15.8506L7.41357 17.4755" stroke="white" strokeWidth="1.5" strokeLinecap="round" strokeLinejoin="round"/>
</svg>
